X:1
T:Heaven’s My Home
T:Heaven’s My Home
T:Anthony Johnson Showalter
T:Anthony Johnson Showalter, 1889
T:Public Domain Courtesy of the Cyber Hymnal™
C:Anthony Johnson Showalter
Z:Public Domain
Z:Courtesy of the Cyber Hymnal™
%%score ( 1 2 ) ( 3 4 )
L:1/8
Q:1/4=90
M:3/4
K:Eb
V:1 treble 
V:2 treble 
V:3 bass 
V:4 bass 
V:1
 E[EG] [GB] | [GB]3 [Ge] [Ac][Ae] | [GB]4 [GB][EG] | [GB]4 [EG]E | [DF]3 E [EG][GB] | %5
w: 1.~This world is|not my rest- ing|place, Heav’n’s my|home, Heav’n’s my|home; I seek a|
w: 2.~In that blest|home there is no|night, Heav’n’s my|home, Heav’n’s my|home; The face of|
w: 3.~O wea- ry|one, with sin op-|pressed, Heav’n’s my|home, Heav’n’s my|home; Come, go with|
 [GB]3 [Ge] [Ac][Ae] | [GB]4 [GB][EG] | ([GB]3 [EG]) [DF][DF] | E3 ||"^Refrain" [GB][Ge] [Ge] | %10
w: bet- ter home than|this, Heav’n’s my|home, * Heav’n’s my|home.||
w: Je- sus is the|light, Heav’n’s my|home, * Heav’n’s my|home.|~~My home a-|
w: me, and find sweet|rest, Heav’n’s my|home, * Heav’n’s my|home.||
 [Fd]3 [Dc] [DA][Dc] | [EB]4 [EB][EG] | [GB]3 [Ac] [GB][EG] | [DF]3 E [EG][GB] | %14
w: ||||
w: bove! sweet home of|love! Tho’ a-|while the earth I|roam, A man- sion|
w: ||||
 [GB]3 [Ge] [Ac][Ae] | [GB]4 [GB][EG] | ([GB]3 [EG]) [DF][DF] | E3 |] %18
w: ||||
w: fair a- waits me|there, Heav’n’s my|home, * Heav’n’s my|home.|
w: ||||
V:2
 E x2 | x6 | x6 | x5 E | x3 E x2 | x6 | x6 | x6 | E3 || x3 | x6 | x6 | x6 | x3 E x2 | x6 | x6 | %16
 x6 | E3 |] %18
V:3
 [E,G,][E,B,] [E,E] | [E,E]3 [E,E] [A,,E][C,E] | [E,E]4 [E,E][E,B,] | [E,E]4 [E,B,][E,G,] | %4
 [B,,B,]3 [E,G,] [E,B,][E,E] | [E,E]3 [E,E] [A,,E][A,,E] | [E,E]4 [E,E][E,B,] | %7
 (E3 B,) [B,,A,][B,,A,] | [E,G,]3 || [E,B,][E,B,] [E,B,] | [B,,B,]3 [B,,A,] [B,,F,][B,,A,] | %11
 [E,G,]4 [E,G,][E,B,] | [E,E]3 [E,E] [E,E][E,B,] | [B,,B,]3 [E,G,] [E,B,][E,E] | %14
 [E,E]3 [E,E] [A,,E][A,,E] | [E,E]4 [E,E][E,B,] | (E3 B,) [B,,A,][B,,A,] | [E,G,]3 |] %18
V:4
 x3 | x6 | x6 | x6 | x6 | x6 | x6 | E,4 x2 | x3 || x3 | x6 | x6 | x6 | x6 | x6 | x6 | E,4 x2 | %17
 x3 |] %18

